build/img/icon.svg

<svg width="32" height="32" viewBox="0 0 32 32" fill="none" xmlns="http://www.w3.org/2000/svg">
<rect width="32" height="32" rx="8" fill="#EEEEEE"/>
<path d="M27.9716 19.0589L25.922 10.6265C25.7793 9.69833 24.8913 8 22.5127 8C22.355 8 22.2037 8.06242 22.0922 8.17352C21.9807 8.28463 21.918 8.43531 21.918 8.59244C21.918 8.74956 21.9807 8.90025 22.0922 9.01136C22.2037 9.12246 22.355 9.18488 22.5127 9.18488C24.4354 9.18488 24.7208 10.6581 24.7486 10.82L26.6356 18.6007H25.8071C25.7214 17.922 25.4892 17.2698 25.1265 16.6889C24.7638 16.108 24.2792 15.6123 23.706 15.2357C23.5265 15.311 23.3732 15.4373 23.2653 15.5988C23.1574 15.7604 23.0997 15.95 23.0994 16.1441C23.1016 16.1783 23.1016 16.2126 23.0994 16.2468C23.5815 16.5762 23.9771 17.016 24.2531 17.5295C24.529 18.0429 24.6772 18.6148 24.6852 19.1971C24.6828 19.3958 24.6642 19.5939 24.6297 19.7895C24.4999 20.6286 24.073 21.3936 23.4262 21.9463C22.7794 22.499 21.9555 22.8028 21.1034 22.8028C20.2513 22.8028 19.4273 22.499 18.7805 21.9463C18.1338 21.3936 17.7069 20.6286 17.5771 19.7895C17.5425 19.5939 17.524 19.3958 17.5216 19.1971C17.5278 18.6492 17.6564 18.1095 17.8982 17.6173C17.6977 17.6033 17.51 17.5139 17.3731 17.3672C17.2362 17.2206 17.1603 17.0276 17.1608 16.8274C17.1615 16.7556 17.1345 16.6864 17.0855 16.6338C16.7019 17.2301 16.4593 17.9053 16.3759 18.6086H15.6385C15.512 17.4469 14.9593 16.3728 14.0863 15.5924C13.2134 14.8119 12.0819 14.3803 10.9091 14.3803C9.7362 14.3803 8.60469 14.8119 7.73177 15.5924C6.85886 16.3728 6.30609 17.4469 6.17959 18.6086H5.35897L7.24996 10.82C7.27375 10.6581 7.57108 9.18488 9.48586 9.18488C9.64357 9.18488 9.79482 9.12246 9.90634 9.01136C10.0179 8.90025 10.0805 8.74956 10.0805 8.59244C10.0805 8.43531 10.0179 8.28463 9.90634 8.17352C9.79482 8.06242 9.64357 8 9.48586 8C7.10725 8 6.21923 9.69833 6.07652 10.6265L4.02299 19.0589C3.99758 19.1447 3.99316 19.2353 4.01009 19.3232C4.02702 19.4111 4.0648 19.4936 4.12029 19.564C4.17578 19.6344 4.24736 19.6905 4.32905 19.7276C4.41074 19.7648 4.50018 19.782 4.58989 19.7777H6.17563C6.20788 20.022 6.25824 20.2636 6.32627 20.5005C6.35131 20.4572 6.36495 20.4083 6.36591 20.3583C6.36591 20.1488 6.44945 19.9479 6.59814 19.7997C6.74683 19.6516 6.9485 19.5684 7.15878 19.5684C7.22316 19.5692 7.28714 19.5785 7.34907 19.596C7.3318 19.4584 7.32254 19.32 7.32132 19.1813C7.32238 18.9828 7.33962 18.7846 7.37286 18.5889C7.49987 17.7471 7.92582 16.9788 8.5733 16.4234C9.22077 15.8681 10.0468 15.5627 10.9011 15.5627C11.7555 15.5627 12.5815 15.8681 13.229 16.4234C13.8764 16.9788 14.3024 17.7471 14.4294 18.5889C14.4626 18.7846 14.4799 18.9828 14.4809 19.1813C14.4747 20.1221 14.0968 21.0227 13.429 21.688C12.7613 22.3532 11.8574 22.7297 10.913 22.7359C10.1401 22.7465 9.38469 22.5067 8.76038 22.0527C8.61732 22.1765 8.4345 22.2451 8.24502 22.2462C8.16685 22.2472 8.09224 22.2789 8.03733 22.3343C7.98243 22.3898 7.95165 22.4645 7.95165 22.5424C7.95058 22.6529 7.92627 22.7618 7.8803 22.8623C8.72842 23.5626 9.79562 23.9455 10.8972 23.9445C12.0608 23.9495 13.1858 23.5294 14.0596 22.7638C14.9333 21.9981 15.495 20.94 15.6385 19.7895H16.36C16.4906 20.9477 17.0449 22.0172 17.917 22.7939C18.789 23.5706 19.9178 24 21.0875 24C22.2573 24 23.386 23.5706 24.2581 22.7939C25.1301 22.0172 25.6844 20.9477 25.815 19.7895H27.4007C27.4924 19.7961 27.5843 19.7801 27.6682 19.7429C27.7522 19.7057 27.8257 19.6484 27.8821 19.5762C27.9386 19.5039 27.9763 19.4189 27.9919 19.3287C28.0075 19.2385 28.0005 19.1458 27.9716 19.0589Z" fill="black"/>
</svg>

<svg width="32" height="32" fill="none" xmlns="http://www.w3.org/2000/svg"><rect width="32" height="32" rx="8" fill="#EEE"/><path d="M27.972 19.059l-2.05-8.433C25.779 9.698 24.892 8 22.512 8a.596.596 0 00-.594.592.591.591 0 00.595.593c1.922 0 2.208 1.473 2.236 1.635l1.887 7.78h-.829a4.728 4.728 0 00-2.101-3.364.99.99 0 00-.607.908.8.8 0 010 .103 3.642 3.642 0 011.586 2.95 3.665 3.665 0 01-.055.593 3.551 3.551 0 01-1.204 2.156 3.576 3.576 0 01-4.645 0 3.552 3.552 0 01-1.204-2.157 3.654 3.654 0 01-.055-.592 3.677 3.677 0 01.376-1.58.794.794 0 01-.737-.79.28.28 0 00-.076-.193 4.665 4.665 0 00-.71 1.975h-.736a4.733 4.733 0 00-1.553-3.017 4.767 4.767 0 00-6.354 0A4.733 4.733 0 006.18 18.61h-.821l1.891-7.79c.024-.162.321-1.635 2.236-1.635a.596.596 0 00.595-.593A.591.591 0 009.486 8c-2.379 0-3.267 1.698-3.41 2.627l-2.053 8.432a.559.559 0 00.306.669.564.564 0 00.26.05h1.587c.032.244.082.486.15.723a.295.295 0 00.04-.143.789.789 0 01.983-.762 3.582 3.582 0 01-.028-.415c.001-.198.019-.396.052-.592a3.551 3.551 0 011.2-2.166 3.576 3.576 0 014.656 0 3.552 3.552 0 011.2 2.166c.034.196.05.394.052.592a3.572 3.572 0 01-1.052 2.507 3.598 3.598 0 01-2.516 1.048 3.577 3.577 0 01-2.153-.683.795.795 0 01-.515.193.298.298 0 00-.293.296.787.787 0 01-.072.32 4.732 4.732 0 003.017 1.083 4.768 4.768 0 003.163-1.181 4.734 4.734 0 001.579-2.974h.721a4.734 4.734 0 001.557 3.004 4.767 4.767 0 006.341 0 4.734 4.734 0 001.557-3.005h1.586a.56.56 0 00.59-.46.555.555 0 00-.02-.27z" fill="#000"/></svg>
